localPackages/DesignSystem/Sources/DesignSystem/Resources/Assets.xcassets/IconSet/ic-brand-android.imageset/ic-brand-android.svg

<svg width="24" height="24" viewBox="0 0 24 24" fill="none" xmlns="http://www.w3.org/2000/svg">
<g id="ic-brand-android">
<path id="Icon" fill-rule="evenodd" clip-rule="evenodd" d="M16.8043 14.1449C16.4551 14.2047 16.1041 14.0485 15.9102 13.7469C15.7163 13.4453 15.7163 13.0555 15.9102 12.7538C16.1041 12.4522 16.4551 12.296 16.8043 12.3559C17.2335 12.4294 17.5478 12.8075 17.5478 13.2504C17.5478 13.6932 17.2335 14.0713 16.8043 14.1449ZM7.24535 14.1449C6.88255 14.1448 6.55601 13.9209 6.4196 13.5789C6.28319 13.2368 6.36412 12.8447 6.62425 12.5874C6.88438 12.3301 7.27182 12.2588 7.60403 12.4072C7.93624 12.5556 8.14694 12.894 8.13686 13.263C8.12345 13.7541 7.72821 14.1451 7.24535 14.1449ZM17.1509 9.50833L18.7606 6.48462C18.8047 6.4081 18.8165 6.31663 18.7932 6.23114C18.7698 6.14565 18.7134 6.07345 18.6368 6.03106C18.4722 5.9557 18.2783 6.02147 18.191 6.18225L16.5318 9.23116C15.1121 8.5612 13.565 8.2171 12 8.22325C10.4332 8.22643 8.88324 8.55214 7.4434 9.18076L5.80896 6.13185C5.68007 6.02178 5.4921 6.02178 5.36321 6.13185C5.28819 6.16911 5.23204 6.23676 5.20848 6.31825C5.18493 6.39974 5.19614 6.48755 5.23939 6.56021L6.84906 9.58393C3.66192 11.1534 1.59935 14.3986 1.5 17.9999H22.5C22.4467 14.3529 20.3771 11.048 17.1509 9.45794" fill="#0F0F0F"/>
</g>
</svg>

<svg xmlns="http://www.w3.org/2000/svg" width="24" height="24" viewBox="0 0 24 24">
  <g class="ic-brand-android">
    <path fill-rule="evenodd" d="M16.804 14.145a.885.885 0 0 1-.894-.398.92.92 0 0 1 0-.993.885.885 0 0 1 .894-.398c.43.074.744.452.744.894a.903.903 0 0 1-.744.895Zm-9.559 0a.892.892 0 0 1-.825-.566.918.918 0 0 1 .204-.992.88.88 0 0 1 .98-.18.908.908 0 0 1 .533.856.899.899 0 0 1-.892.882Zm9.906-4.637 1.61-3.023a.333.333 0 0 0-.124-.454.344.344 0 0 0-.446.151l-1.66 3.05A10.519 10.519 0 0 0 12 8.222a11.443 11.443 0 0 0-4.557.958L5.81 6.13a.342.342 0 0 0-.446 0 .307.307 0 0 0-.124.428l1.61 3.025C3.662 11.154 1.6 14.399 1.5 18h21c-.053-3.647-2.123-6.952-5.35-8.542" class="Icon"/>
  </g>
</svg>
